build/img/icons/money.svg

<svg width="31" height="20" viewBox="0 0 31 20" fill="none" xmlns="http://www.w3.org/2000/svg">
<path d="M24.8516 6.27749C24.8516 4.23792 23.1996 2.58594 21.1601 2.58594C19.1205 2.58594 17.4685 4.23792 17.4685 6.27749C17.4685 8.31705 19.1205 9.96904 21.1601 9.96904C23.1996 9.96904 24.8516 8.31705 24.8516 6.27749ZM20.9567 8.79994C20.8551 8.79994 20.8042 8.74276 20.8042 8.6411C20.8042 8.5585 20.8042 8.48225 20.8042 8.39965C20.8042 8.22175 20.7979 8.21539 20.6263 8.18998C20.4103 8.15821 20.2006 8.10738 19.9973 8.01207C19.8448 7.93583 19.8258 7.8977 19.8702 7.73251C19.902 7.61178 19.9338 7.49106 19.9719 7.37034C20.0164 7.23056 20.0545 7.21149 20.1816 7.28139C20.3976 7.39575 20.6327 7.45929 20.8741 7.49106C21.033 7.51012 21.1855 7.49742 21.3316 7.43388C21.6048 7.31316 21.6429 7.00182 21.4142 6.81121C21.338 6.74767 21.249 6.69684 21.1537 6.65871C20.9186 6.55705 20.6645 6.47445 20.4421 6.34103C20.0799 6.125 19.8448 5.82002 19.8702 5.3816C19.902 4.87965 20.1816 4.56832 20.6454 4.39677C20.836 4.32688 20.836 4.33323 20.836 4.12991C20.836 4.06002 20.836 3.99648 20.836 3.92659C20.8424 3.7741 20.8678 3.74868 21.0139 3.74868C21.0584 3.74868 21.1092 3.74868 21.1537 3.74868C21.4714 3.74868 21.4714 3.74868 21.4714 4.06637C21.4714 4.28875 21.4714 4.28875 21.6938 4.32687C21.8653 4.35229 22.0305 4.40312 22.1894 4.47301C22.2783 4.51113 22.3101 4.57467 22.2847 4.66363C22.2466 4.80341 22.2084 4.93684 22.164 5.07662C22.1195 5.2037 22.0814 5.22276 21.9606 5.16557C21.7128 5.04485 21.4523 4.99402 21.1791 5.01308C21.1092 5.01944 21.0393 5.02579 20.9694 5.05756C20.7344 5.15922 20.6962 5.41973 20.8932 5.58492C20.9949 5.66752 21.1092 5.72471 21.23 5.77554C21.4396 5.86449 21.6493 5.94709 21.8463 6.0551C22.4816 6.40456 22.6532 7.19879 22.2021 7.74521C22.0432 7.94218 21.8336 8.07561 21.5858 8.13915C21.4777 8.17092 21.4333 8.22175 21.4333 8.33611C21.4396 8.44413 21.4333 8.55214 21.4333 8.66016C21.4333 8.75546 21.3824 8.81265 21.2871 8.81265C21.1918 8.8063 21.0711 8.8063 20.9567 8.79994Z" fill="#FC9B09"/>
<path d="M15.7965 7.48488C16.3615 7.48488 16.8195 7.02689 16.8195 6.46192C16.8195 5.89696 16.3615 5.43896 15.7965 5.43896C15.2316 5.43896 14.7736 5.89696 14.7736 6.46192C14.7736 7.02689 15.2316 7.48488 15.7965 7.48488Z" fill="#37373F"/>
<path d="M26.542 7.48488C27.107 7.48488 27.565 7.02689 27.565 6.46192C27.565 5.89696 27.107 5.43896 26.542 5.43896C25.977 5.43896 25.519 5.89696 25.519 6.46192C25.519 7.02689 25.977 7.48488 26.542 7.48488Z" fill="#37373F"/>
<path d="M29.3231 0.25415H13.2416C12.314 0.25415 11.5579 1.01025 11.5579 1.9379V7.55465C11.8057 7.54195 12.0535 7.53559 12.3076 7.53559C12.5427 7.53559 12.7714 7.54195 13.0002 7.55465V3.76144C13.1336 3.79321 13.2734 3.81227 13.4195 3.81227C14.3599 3.81227 15.1287 3.04982 15.1287 2.1031C15.1287 1.95697 15.1096 1.81718 15.0779 1.68375H27.6012C27.5821 1.78541 27.5694 1.89343 27.5694 1.99509C27.5694 2.93545 28.3319 3.70426 29.2786 3.70426C29.3802 3.70426 29.4819 3.69155 29.5772 3.67884V8.85718C29.4819 8.83812 29.3802 8.83177 29.2786 8.83177C28.3382 8.83177 27.5694 9.59422 27.5694 10.5409C27.5694 10.6489 27.5821 10.7506 27.6012 10.8523H18.6233C18.6233 10.8904 18.6233 10.9285 18.6233 10.9666C18.6233 10.9857 18.6233 10.9984 18.6233 11.0175V12.2946H29.3167C30.2444 12.2946 31.0005 11.5385 31.0005 10.6108V1.9379C31.0068 1.01025 30.2507 0.25415 29.3231 0.25415Z" fill="#37373F"/>
<path d="M1.71552 8.48231C2.64318 8.83177 3.86946 9.02238 5.16563 9.02238C5.85184 9.02238 6.51899 8.9652 7.12895 8.86354C7.4657 8.60939 7.89776 8.36794 8.45054 8.16462C9.00332 7.9613 9.64505 7.80246 10.3313 7.7008V6.7795C10.3313 6.76679 10.3313 6.75408 10.3313 6.74137C10.3313 6.73502 10.3313 6.72231 10.3313 6.71596V4.55567C10.3313 4.54296 10.3313 4.53025 10.3313 4.51755C10.3313 4.51119 10.3313 4.49848 10.3313 4.49213V2.33184C10.3313 2.31913 10.3313 2.30643 10.3313 2.29372C10.3313 1.79177 10.0326 1.08014 8.61574 0.546426C7.68809 0.190614 6.46181 0 5.16563 0C3.86946 0 2.64318 0.190614 1.71552 0.540072C0.298628 1.06744 0 1.77906 0 2.28736V4.48578C0 4.49213 0 4.50484 0 4.51119V6.7096C0 6.71596 0 6.72867 0 6.73502V6.76043V8.93343V8.95885C0 8.9652 0 8.97791 0 8.98426V11.1827C0 11.189 0 11.2017 0 11.2081V13.4065C0 13.9084 0.298628 14.6201 1.71552 15.1538C2.64318 15.5033 3.86946 15.6939 5.16563 15.6939C5.4452 15.6939 5.71841 15.6875 5.99163 15.6684V15.4524V15.427C5.99163 15.4207 5.99163 15.4207 5.99163 15.4143C5.99163 15.4079 5.99163 15.4016 5.99163 15.4016V14.5311C5.72477 14.5502 5.4452 14.5629 5.16563 14.5629C4.00289 14.5629 2.91639 14.3977 2.11581 14.0991C1.32159 13.8004 1.13733 13.5018 1.13733 13.4256V12.7076C1.30253 12.7965 1.49949 12.8791 1.71552 12.9617C2.64318 13.3112 3.86946 13.5018 5.16563 13.5018C5.4452 13.5018 5.71841 13.4955 5.99163 13.4764V13.2032C5.99163 13.1968 5.99163 13.1968 5.99163 13.1905C5.99163 13.1841 5.99163 13.1778 5.99163 13.1778V12.3073C5.72477 12.3264 5.4452 12.3391 5.16563 12.3391C4.00289 12.3391 2.91639 12.1739 2.11581 11.8752C1.32159 11.5766 1.13733 11.278 1.13733 11.2017V10.4901C1.30253 10.5791 1.49949 10.6617 1.71552 10.7443C2.64318 11.0937 3.86946 11.2843 5.16563 11.2843C5.4452 11.2843 5.71841 11.278 5.99163 11.2589V10.9857C5.99163 10.7316 6.02975 10.4012 6.18224 10.0453C5.85184 10.0771 5.51509 10.0898 5.16563 10.0898C4.00289 10.0898 2.91639 9.92462 2.11581 9.62599C1.32159 9.32736 1.13733 9.02874 1.13733 8.95249V8.24087C1.30888 8.31076 1.49949 8.39971 1.71552 8.48231ZM2.11581 1.60751C2.92274 1.30888 4.00924 1.14368 5.16563 1.14368C6.32838 1.14368 7.41487 1.30888 8.21545 1.60751C8.98426 1.89343 9.17487 2.17935 9.18758 2.27466V2.29372C9.17487 2.38903 8.98426 2.67495 8.21545 2.96087C7.40852 3.25949 6.32202 3.42469 5.16563 3.42469C4.00289 3.42469 2.91639 3.25949 2.11581 2.96087C1.32159 2.66224 1.13733 2.36361 1.13733 2.28736C1.13733 2.21112 1.32159 1.89978 2.11581 1.60751ZM1.13733 3.7678C1.30253 3.85675 1.49949 3.93935 1.71552 4.02195C2.64318 4.37141 3.86946 4.56202 5.16563 4.56202C6.46181 4.56202 7.68809 4.37141 8.61574 4.02195C8.83177 3.93935 9.02238 3.85675 9.19394 3.7678V4.47942V4.48578C9.18123 4.58108 8.99061 4.867 8.22181 5.15292C7.41487 5.45155 6.32838 5.61675 5.17199 5.61675C4.00924 5.61675 2.92274 5.45155 2.12217 5.15292C1.32794 4.8543 1.14368 4.55567 1.14368 4.47942V3.7678H1.13733ZM1.13733 5.99798C1.30253 6.08693 1.49949 6.16953 1.71552 6.25213C2.64318 6.60159 3.86946 6.7922 5.16563 6.7922C6.46181 6.7922 7.68809 6.60159 8.61574 6.25213C8.83177 6.16953 9.02238 6.08693 9.19394 5.99798V6.7096V6.71596C9.18123 6.81126 8.99061 7.09719 8.22181 7.38311C7.41487 7.68173 6.32838 7.84693 5.17199 7.84693C4.00924 7.84693 2.92274 7.68173 2.12217 7.38311C1.32794 7.08448 1.14368 6.78585 1.14368 6.7096V5.99798H1.13733Z" fill="#FC9B09"/>
<path d="M15.7559 9.22562C14.8282 8.87616 13.6019 8.68555 12.3058 8.68555C11.0096 8.68555 9.78331 8.87616 8.85566 9.22562C7.43876 9.75298 7.14014 10.4646 7.14014 10.9729V13.1713C7.14014 13.1777 7.14014 13.1904 7.14014 13.1967V15.3952C7.14014 15.4015 7.14014 15.4142 7.14014 15.4206V15.446V17.619V17.6444C7.14014 18.1463 7.43876 18.858 8.85566 19.3917C9.78331 19.7411 11.0096 19.9318 12.3058 19.9318C13.6019 19.9318 14.8282 19.7411 15.7559 19.3917C17.1728 18.8643 17.4714 18.1527 17.4714 17.6444V17.619V15.4587C17.4714 15.446 17.4714 15.4333 17.4714 15.4206C17.4714 15.4142 17.4714 15.4015 17.4714 15.3952V13.2349C17.4714 13.2222 17.4714 13.2094 17.4714 13.1967C17.4714 13.1904 17.4714 13.1777 17.4714 13.1713V11.011C17.4714 10.9983 17.4714 10.9856 17.4714 10.9729C17.4778 10.471 17.1791 9.75934 15.7559 9.22562ZM9.25595 10.2994C10.0629 10.0008 11.1494 9.83558 12.3058 9.83558C13.4685 9.83558 14.555 10.0008 15.3556 10.2994C16.1244 10.5853 16.3214 10.8713 16.3277 10.9666V10.9856C16.315 11.0809 16.1244 11.3668 15.3556 11.6528C14.5487 11.9514 13.4622 12.1166 12.3058 12.1166C11.143 12.1166 10.0565 11.9514 9.25595 11.6528C8.46173 11.3541 8.27747 11.0555 8.27747 10.9793C8.27747 10.903 8.45537 10.5917 9.25595 10.2994ZM15.3619 18.3052C14.555 18.6038 13.4685 18.769 12.3121 18.769C11.1494 18.769 10.0629 18.6038 9.2623 18.3052C8.46808 18.0066 8.28382 17.7079 8.28382 17.6317V16.9201C8.44902 17.009 8.64598 17.0916 8.86201 17.1742C9.78967 17.5237 11.0159 17.7143 12.3121 17.7143C13.6083 17.7143 14.8346 17.5237 15.7622 17.1742C15.9783 17.0916 16.1689 17.009 16.3404 16.9201V17.6317C16.3341 17.7079 16.1562 18.0066 15.3619 18.3052ZM16.3341 15.4015V15.4079C16.3214 15.5032 16.1308 15.7891 15.3619 16.075C14.555 16.3736 13.4685 16.5388 12.3121 16.5388C11.1494 16.5388 10.0629 16.3736 9.2623 16.075C8.46808 15.7764 8.28382 15.4778 8.28382 15.4015V14.6899C8.44902 14.7788 8.64598 14.8614 8.86201 14.944C9.78967 15.2935 11.0159 15.4841 12.3121 15.4841C13.6083 15.4841 14.8346 15.2935 15.7622 14.944C15.9783 14.8614 16.1689 14.7788 16.3404 14.6899L16.3341 15.4015ZM16.3341 13.1713V13.1777C16.3214 13.273 16.1308 13.5589 15.3619 13.8448C14.555 14.1435 13.4685 14.3087 12.3121 14.3087C11.1494 14.3087 10.0629 14.1435 9.2623 13.8448C8.46808 13.5462 8.28382 13.2476 8.28382 13.1713V12.4597C8.44902 12.5487 8.64598 12.6313 8.86201 12.7139C9.78967 13.0633 11.0159 13.2539 12.3121 13.2539C13.6083 13.2539 14.8346 13.0633 15.7622 12.7139C15.9783 12.6313 16.1689 12.5487 16.3404 12.4597L16.3341 13.1713Z" fill="#37373F"/>
</svg>

<svg width="31" height="20" fill="none" xmlns="http://www.w3.org/2000/svg"><path d="M24.852 6.277a3.69 3.69 0 00-3.692-3.691 3.69 3.69 0 00-3.692 3.691A3.69 3.69 0 0021.16 9.97a3.69 3.69 0 003.692-3.692zM20.957 8.8c-.102 0-.153-.057-.153-.159V8.4c0-.178-.006-.185-.178-.21a2.217 2.217 0 01-.629-.178c-.152-.076-.171-.114-.127-.28.032-.12.064-.24.102-.362.044-.14.082-.159.21-.089.216.115.45.178.692.21.159.02.312.006.458-.057.273-.12.31-.432.082-.623a.968.968 0 00-.26-.152c-.235-.102-.49-.185-.712-.318-.362-.216-.597-.521-.572-.96.032-.501.312-.813.775-.984.191-.07.191-.064.191-.267v-.203c.006-.153.032-.178.178-.178h.14c.317 0 .317 0 .317.317 0 .223 0 .223.223.26.171.026.337.077.495.147.09.038.121.102.096.19-.038.14-.077.274-.121.414-.045.127-.083.146-.203.089a1.514 1.514 0 00-.782-.153.61.61 0 00-.21.045c-.235.101-.273.362-.076.527.102.083.216.14.337.19.21.09.42.172.616.28.636.35.807 1.144.356 1.69-.159.197-.368.33-.616.394-.108.032-.153.083-.153.197.007.108 0 .216 0 .324 0 .095-.05.153-.146.153-.095-.007-.216-.007-.33-.013z" fill="#FC9B09"/><path d="M15.796 7.485a1.023 1.023 0 100-2.046 1.023 1.023 0 000 2.046zm10.746 0a1.023 1.023 0 100-2.046 1.023 1.023 0 000 2.046z" fill="#37373F"/><path d="M29.323.254H13.242c-.928 0-1.684.756-1.684 1.684v5.617a14.584 14.584 0 011.442 0V3.76a1.71 1.71 0 002.078-2.078H27.6c-.019.102-.032.21-.032.312a1.71 1.71 0 002.008 1.684v5.178a1.71 1.71 0 00-2.008 1.684c0 .108.013.21.032.311h-8.978v1.443h10.694c.927 0 1.683-.756 1.683-1.684V1.938A1.677 1.677 0 0029.323.254z" fill="#37373F"/><path d="M1.716 8.482c.927.35 2.153.54 3.45.54.686 0 1.353-.057 1.963-.158a5.097 5.097 0 011.322-.7 9.582 9.582 0 011.88-.463V2.294c0-.502-.298-1.214-1.715-1.748C7.688.191 6.462 0 5.166 0c-1.297 0-2.523.19-3.45.54C.299 1.067 0 1.78 0 2.287v11.119c0 .502.299 1.214 1.716 1.748.927.35 2.153.54 3.45.54.28 0 .552-.007.826-.026v-1.136c-.267.018-.547.03-.826.03-1.163 0-2.25-.164-3.05-.463-.794-.299-.979-.597-.979-.673v-.718c.166.088.362.171.579.254.927.35 2.153.54 3.45.54.28 0 .552-.007.826-.026v-1.168c-.267.018-.547.031-.826.031-1.163 0-2.25-.165-3.05-.464-.794-.298-.979-.597-.979-.673v-.712c.166.09.362.172.579.254.927.35 2.153.54 3.45.54.28 0 .552-.006.826-.025v-.273c0-.254.038-.585.19-.94-.33.031-.667.044-1.016.044-1.163 0-2.25-.165-3.05-.464-.794-.299-.979-.597-.979-.674v-.711c.172.07.362.159.579.241zm.4-6.874c.807-.3 1.893-.464 3.05-.464 1.162 0 2.249.165 3.05.464.768.285.959.571.972.667v.019c-.013.095-.204.38-.973.667-.806.298-1.893.464-3.05.464-1.162 0-2.249-.166-3.05-.464-.793-.299-.978-.597-.978-.674 0-.076.185-.387.979-.68zm-.979 2.16c.166.089.362.171.579.254.927.35 2.153.54 3.45.54 1.296 0 2.522-.19 3.45-.54.216-.083.406-.165.578-.254v.718c-.013.095-.203.381-.972.667-.807.299-1.894.464-3.05.464-1.163 0-2.25-.165-3.05-.464-.794-.299-.978-.597-.978-.674v-.711h-.007zm0 2.23c.166.089.362.172.579.254.927.35 2.153.54 3.45.54 1.296 0 2.522-.19 3.45-.54.216-.082.406-.165.578-.254v.718c-.013.095-.203.381-.972.667-.807.299-1.894.464-3.05.464-1.163 0-2.25-.165-3.05-.464-.794-.299-.978-.597-.978-.673v-.712h-.007z" fill="#FC9B09"/><path d="M15.756 9.226c-.928-.35-2.154-.54-3.45-.54-1.296 0-2.523.19-3.45.54-1.417.527-1.716 1.239-1.716 1.747v6.671c0 .502.299 1.214 1.716 1.748.927.35 2.154.54 3.45.54 1.296 0 2.522-.19 3.45-.54 1.417-.528 1.715-1.24 1.715-1.748v-6.67c.007-.502-.292-1.214-1.715-1.747zm-6.5 1.073c.807-.298 1.893-.463 3.05-.463 1.163 0 2.249.165 3.05.463.768.286.965.572.972.668v.019c-.013.095-.204.38-.972.667-.807.298-1.894.464-3.05.464-1.163 0-2.25-.166-3.05-.464-.794-.299-.979-.598-.979-.674 0-.076.178-.387.979-.68zm6.106 8.006c-.807.299-1.893.464-3.05.464-1.163 0-2.25-.165-3.05-.464-.794-.298-.978-.597-.978-.673v-.712c.165.089.362.172.578.254.928.35 2.154.54 3.45.54 1.296 0 2.523-.19 3.45-.54a5.6 5.6 0 00.578-.254v.712c-.006.076-.184.375-.978.673zm.972-2.903v.006c-.013.095-.203.381-.972.667-.807.299-1.893.464-3.05.464-1.163 0-2.25-.165-3.05-.464-.794-.299-.978-.597-.978-.673v-.712c.165.089.362.171.578.254.928.35 2.154.54 3.45.54 1.296 0 2.523-.19 3.45-.54a5.6 5.6 0 00.578-.254l-.006.712zm0-2.23v.006c-.013.095-.203.38-.972.667-.807.298-1.893.464-3.05.464-1.163 0-2.25-.165-3.05-.464-.794-.299-.978-.597-.978-.674v-.711c.165.089.362.171.578.254.928.35 2.154.54 3.45.54 1.296 0 2.523-.19 3.45-.54.216-.083.407-.165.578-.254l-.006.711z" fill="#37373F"/></svg>
